icons/redo-24.svg

<svg width="24" height="24" viewBox="0 0 24 24">
  <path
    d="M14.7197 2.21967C15.0126 1.92678 15.4874 1.92678 15.7803 2.21967L22.0303 8.46967C22.3232 8.76256 22.3232 9.23744 22.0303 9.53033L15.7803 15.7803C15.4874 16.0732 15.0126 16.0732 14.7197 15.7803C14.4268 15.4874 14.4268 15.0126 14.7197 14.7197L19.6893 9.75L8.25 9.75C7.45335 9.75 6.24168 9.99516 5.25073 10.7087C4.29802 11.3946 3.5 12.5444 3.5 14.5C3.5 16.4556 4.29802 17.6054 5.25073 18.2913C6.24168 19.0048 7.45335 19.25 8.25 19.25H11.25C11.6642 19.25 12 19.5858 12 20C12 20.4142 11.6642 20.75 11.25 20.75H8.25C7.21332 20.75 5.67498 20.4452 4.37427 19.5087C3.03532 18.5446 2 16.9444 2 14.5C2 12.0556 3.03532 10.4554 4.37427 9.49135C5.67498 8.55484 7.21332 8.25 8.25 8.25L19.6893 8.25L14.7197 3.28033C14.4268 2.98744 14.4268 2.51256 14.7197 2.21967Z" />
</svg>

<svg xmlns="http://www.w3.org/2000/svg" width="24" height="24" viewBox="0 0 24 24"><path d="M14.72 2.22a.75.75 0 0 1 1.06 0l6.25 6.25a.75.75 0 0 1 0 1.06l-6.25 6.25a.75.75 0 1 1-1.06-1.06l4.97-4.97H8.25c-.797 0-2.008.245-3 .959-.952.686-1.75 1.835-1.75 3.791s.798 3.105 1.75 3.791c.992.714 2.203.959 3 .959h3a.75.75 0 0 1 0 1.5h-3c-1.037 0-2.575-.305-3.876-1.241C3.035 18.545 2 16.944 2 14.5c0-2.444 1.035-4.045 2.374-5.009C5.675 8.555 7.214 8.25 8.25 8.25h11.44l-4.97-4.97a.75.75 0 0 1 0-1.06Z"/></svg>
